X:180
T:Reel des Moissonneurs
C:Joseph Allard
M:2/4
L:1/16
Z:abc by Bruce Osborne - bosborne@kos.net
K:G
g2|bgdB GBdg|ecAG FAd2|dcAF dcAF|GABc d2g2|!
bgdB GBdg|ecAG FAd2|dcAF dcAF|G2B2 G2:|!
K:D
FG|ABAF ABAG|FAde f2a2|agec agec|defg a2FG|!
ABAF ABAG|FAde f2a2|agec agec|d2f2 d2:|!
